.local/share/icons/Gruvbox-Plus-Dark/panel/16/irc-channel-joined.svg

<svg width="16" height="16" version="1.1" xmlns="http://www.w3.org/2000/svg">
  <defs>
    <style id="current-color-scheme" type="text/css">.ColorScheme-Text { color:#ebdbb2; } .ColorScheme-Highlight { color:#458588; } .ColorScheme-NeutralText { color:#fe8019; } .ColorScheme-PositiveText { color:#689d6a; } .ColorScheme-NegativeText { color:#fb4934; }</style>
  </defs>
  <path class="ColorScheme-Text" d="m4 1v3h-3v2h3v4h-3v2h3v3h2v-3h4v3h2v-3h3v-2h-3v-4h3v-2h-3v-3h-2v3h-4v-3zm2 5h4v4h-4z" fill="currentColor"/>
</svg>

<svg xmlns="http://www.w3.org/2000/svg" width="16" height="16" version="1.1">
 <defs>
  <style id="current-color-scheme" type="text/css">
   .ColorScheme-Text { color:#ebdbb2; } .ColorScheme-Highlight { color:#458588; }
  </style>
 </defs>
 <path style="fill:currentColor" class="ColorScheme-Text" d="M 4,1 V 4 H 1 V 6 H 4 V 10 H 1 V 12 H 4 V 15 H 6 V 12 H 10 V 15 H 12 V 12 H 15 V 10 H 12 V 6 H 15 V 4 H 12 V 1 H 10 V 4 H 6 V 1 Z M 6,6 H 10 V 10 H 6 Z"/>
</svg>
